!!!COM: Bach, Johann Sebastian
!!!OPR: Joh. Seb. Bachs vierstimmige Choralgesänge
!!!XEN: Four-part Chorales
!!!OTL: 52. Erbarm' dich mein, o Herre Gott
!!!SCT: BWV 305
!!!SCA: Thematisch-systematisches Verzeichnis der musikalischen Werke Johann Sebastian Bach: Bach-Werke-Verzeichnis (Schmieder)
!!!YOR: Bach Gesellschaft Edition xxxix
!!!ENC: Steven Rasmussen
!!!CDT: 1685/3//-1750/7/28/
!!!OCY: Deutschland
!!!YEC: Copyright (c) 1994, 2000 Center for Computer Assisted Research in the Humanities
!!!YEM: Rights to all derivative editions reserved
!!!YEN: United States of America
**kern	**kern	**kern	**kern	**silbe
*I:[BASSO]	*I:[TENORE]	*I:[ALTO]	*I:[SOPRANO]	*I:[SOPRANO]
*>[A,A,B]	*>[A,A,B]	*>[A,A,B]	*>[A,A,B]	*
*>A	*>A	*>A	*>A	*
*clefF4	*clefGv2	*clefG2	*clefG2	*
*k[]	*k[]	*k[]	*k[]	*
*C:	*C:	*C:	*C:	*
*M4/4	*M4/4	*M4/4	*M4/4	*
4E	4G	4B	4e	Er-wasch'
=1	=1	=1	=1	=1
8EL	4B	4e	4g	-barm'ab,
8FJ	.	.	.	.
8EL	4B	4e	4g	dichmach'
8DJ	.	.	.	.
(8C	4c	4e	4a	mein,rein
4A)	.	.	.	.
.	4d	8fL	4b	omein'
8G#	.	8eJ	.	.
=2	=2	=2	=2	=2
8AL	8cL	(8e	4cc	Her-Mis-
8CJ	8eJ	4a)	.	.
8DL	8fL	.	4b	-re-se-
8EJ	16eL	8g#	.	.
.	16dJJ	.	.	.
4AA;	4c;	4e;	4a;	Gott,-tat,
8EL	4B	8eL	4g	nachich
8DJ	.	8fJ	.	.
=3	=3	=3	=3	=3
4C	4e	8gL	4cc	dei-kenn'
.	.	8aJ	.	.
8DL	8fL	8aL	4b	-nermein'
8GJ	16eL	16gL	.	.
.	16dJJ	16fJJ	.	.
8EL	4c	4.g	4cc	gross'nSÃ¼nd'
8CJ	.	.	.	.
4F	4c	.	4a	Barm-und
.	.	8f	.	.
=4	=4	=4	=4	=4
4C	8.cL	8fL	4g	-her-ist
.	.	8eJ	.	.
.	16B-Jk	.	.	.
4D	8AL	8eL	4f	-zig-mir
.	16BnL	16dL	.	.
.	16AJJ	16cJJ	.	.
4E;	4G#;	4B;	4e;	-keit,leid.
=:|!	=:|!	=:|!	=:|!	=:|!
*>B	*>B	*>B	*>B	*
8AL	4A	4c	4e	Al-
8GJ	.	.	.	.
=5	=5	=5	=5	=5
8FL	4c	4f	4a	-lein
8EJ	.	.	.	.
8DL	4d	4f	4a	ich
8CJ	.	.	.	.
8BBL	8dL	8fL	4g	dir
8CJ	8cJ	16eL	.	.
.	.	16dJJ	.	.
8BBL	8GL	8eL	4cc	ge-
8AAJ	8AJ	8f#J	.	.
=6	=6	=6	=6	=6
8GGL	8DL	(16gLL	4b	-sÃ¼n-
.	.	16dJJ	.	.
8BBJ	8dJ	4g)	.	.
8CL	8eL	.	4a	-digt
8DJ	16dL	8f#	.	.
.	16cJJ	.	.	.
4GG;	4B;	4d;	4g;	hab,
8CL	4c	4e	4g	das
8BBJ	.	.	.	.
=7	=7	=7	=7	=7
8AAL	4c	4e	4cc	ist
8BBJ	.	.	.	.
8CL	8cL	8eL	4g	wi-
8EEJ	8B-J	8dJ	.	.
8FFL	4A	8cL	4a	-der
8GGJ	.	8BJ	.	.
8AAL	4A	8c#L	4e	mich
8BBJ	.	8dJ	.	.
=8	=8	=8	=8	=8
8C#L	4A	4.e	8aL	ste-
8AAJ	.	.	8gJ	.
4D	4A	.	4f	-tig-
.	.	8d	.	.
4AA;	4A;	(8dL	4e;	-lich;
.	.	8c#;J)	.	.
8AL	4A	4cn	4e	das
8GJ	.	.	.	.
=9	=9	=9	=9	=9
4F	(8A	(8c	4a	BÃ¶s'
.	4c)	4e-)	.	.
4F#	.	.	4a	vor
.	16BLL	8d	.	.
.	16AJJ	.	.	.
4G	4B	4d	8gL	dir
.	.	.	8fJ	.
8AL	8cL	4c	4e	nicht
8GJ	8BJ	.	.	.
=10	=10	=10	=10	=10
8FL	4A	4c	4f	mag
8DJ	.	.	.	.
8GL	8.GL	8cL	4d	be-
8GGJ	.	8BJ	.	.
.	16FJk	.	.	.
4C;	4E;	4G;	4c;	-stah'n,
4C	4E	4G	4c	du
=11	=11	=11	=11	=11
4BB	4G	4d	2g	bleibst
8CL	8cL	8eL	.	.
8BBJ	8dJ	8dJ	.	.
4AA	8eL	4c	4a	.
.	8fJ	.	.	.
8GGL	4g	4d	4b	ge-
8FFJ	.	.	.	.
=12	=12	=12	=12	=12
8EEL	4G	8eL	4cc	-recht,
8DDJ	.	8fJ	.	.
8EEL	4c	8gL	4g	ob
8CCJ	.	8eJ	.	.
8FFL	4c	4f	4a	man
8AAJ	.	.	.	.
4C	8.cL	8fL	4g	ur-
.	.	8eJ	.	.
.	16B-Jk	.	.	.
=13	=13	=13	=13	=13
4.D	8AL	8eL	4.f	-tei-
.	16BL	8dJ	.	.
.	16cJJ	.	.	.
.	8BL	8dL	.	.
8D	8AJ	8cJ	8f	-le
4E;	4G#;	4B;	4e;	dich.
==|!	==|!	==|!	==|!	==|!
*-	*-	*-	*-	*-
!!!RWG: Key is interpreted using the Humdrum key tool.
!!!URL-pdf: https://s9.imslp.org/files/imglnks/usimg/6/6b/IMSLP24489-PMLP09471-CCARH_Bach_Chorales.pdf#page=36 Musedata edition
!!!URL-pdf: https://s9.imslp.org/files/imglnks/usimg/7/7a/IMSLP04155-Bach_-_BGA_253-438.pdf#page=28 	Bach-Gesellschaft Ausgabe, Band 39 (pp.175-276) Leipzig: Breitkopf und Härtel, 1892. Plate B.W. XXXIX.
!!!END: 1994/05/25
!!!EMD: Converted from MuseData to Humdrum Dec 19, 2000, by Andreas Kornstaedt using muse2kern.
!!!EED: Craig Stuart Sapp
!!!EEV: 2024/03/31
!!!filter-keyboard: satb2gs
!!!title: @{OTL} (@{SCT})
